X: 1
T: Widdershins
T: 8x32J 3C (Berkhamsted S&R Jubilee 1952-2002)
P: Widdershins
C: by Ken Martlew
C: arr. T. Traub, from Youtube video
M: 6/8
L: 1/8
K: Gm
|: d|"Gm"gdd d^c=c |"Gm"BGG G2 A|"Gm"BGA BGA|"Gm"BAG "D"D2 d|"Gm"gdd d^c=c |"Gm"BGG G2 A|"Gm"BdB "D"AdA|1 "A"df=e "D"d2 :| [2"D"de^f "Gm"G2 :|
